src/components/8_SocialResponsibility/img/plasticbottle.svg

<svg width="35" height="35" viewBox="0 0 35 35" fill="none" xmlns="http://www.w3.org/2000/svg">
<path d="M17.4648 0.840088H21.3498C21.5598 0.840088 21.6998 0.980088 21.6998 1.19009V3.71009C21.6998 3.92009 21.5598 4.06009 21.3498 4.06009H17.4648" stroke="#E62334" stroke-width="1.5" stroke-miterlimit="10" stroke-linecap="round" stroke-linejoin="round"/>
<path d="M20.0548 4.09497L23.3098 7.62997C23.9048 8.25997 24.2198 9.13497 24.2198 10.01V10.29C24.2198 11.06 23.5898 11.69 22.8198 11.69H17.6748" stroke="#E62334" stroke-width="1.5" stroke-miterlimit="10" stroke-linecap="round" stroke-linejoin="round"/>
<path d="M17.5352 11.6902H22.5752C23.4852 11.6902 24.2202 12.4252 24.2202 13.3352C24.2202 14.2452 23.4852 14.9802 22.5752 14.9802H17.5352" stroke="#E62334" stroke-width="1.5" stroke-miterlimit="10" stroke-linecap="round" stroke-linejoin="round"/>
<path d="M17.5352 15.0151H22.5752C23.4852 15.0151 24.2202 15.7501 24.2202 16.6601C24.2202 17.5701 23.4852 18.3051 22.5752 18.3051H17.5352" stroke="#E62334" stroke-width="1.5" stroke-miterlimit="10" stroke-linecap="round" stroke-linejoin="round"/>
<path d="M17.5352 18.3401H22.5752C23.4852 18.3401 24.2202 19.0751 24.2202 19.9851C24.2202 20.8951 23.4852 21.6301 22.5752 21.6301H17.5352" stroke="#E62334" stroke-width="1.5" stroke-miterlimit="10" stroke-linecap="round" stroke-linejoin="round"/>
<path d="M20.8948 21.6301H22.8548C23.6248 21.6301 24.2548 22.2601 24.2548 23.0301V32.7601C24.2548 33.5301 23.6248 34.1601 22.8548 34.1601H17.6748" stroke="#E62334" stroke-width="1.5" stroke-miterlimit="10" stroke-linecap="round" stroke-linejoin="round"/>
<path d="M17.5348 0.840088H13.6498C13.4398 0.840088 13.2998 0.980088 13.2998 1.19009V3.71009C13.2998 3.92009 13.4398 4.06009 13.6498 4.06009H17.5348" stroke="#E62334" stroke-width="1.5" stroke-miterlimit="10" stroke-linecap="round" stroke-linejoin="round"/>
<path d="M14.9453 4.09497L11.6903 7.62997C11.0953 8.25997 10.7803 9.13497 10.7803 10.01V10.29C10.7803 11.06 11.4103 11.69 12.1803 11.69H17.3603" stroke="#E62334" stroke-width="1.5" stroke-miterlimit="10" stroke-linecap="round" stroke-linejoin="round"/>
<path d="M17.5351 11.6902H12.3901C11.4801 11.6902 10.7451 12.4252 10.7451 13.3352C10.7451 14.2452 11.4801 14.9802 12.3901 14.9802H17.5351" stroke="#E62334" stroke-width="1.5" stroke-miterlimit="10" stroke-linecap="round" stroke-linejoin="round"/>
<path d="M17.4651 15.0151H12.3901C11.4801 15.0151 10.7451 15.7501 10.7451 16.6601C10.7451 17.5701 11.4801 18.3051 12.3901 18.3051H17.4301" stroke="#E62334" stroke-width="1.5" stroke-miterlimit="10" stroke-linecap="round" stroke-linejoin="round"/>
<path d="M17.5351 18.3401H12.3901C11.4801 18.3401 10.7451 19.0751 10.7451 19.9851C10.7451 20.8951 11.4801 21.6301 12.3901 21.6301H17.5351" stroke="#E62334" stroke-width="1.5" stroke-miterlimit="10" stroke-linecap="round" stroke-linejoin="round"/>
<path d="M14.1051 21.6301H12.1451C11.3751 21.6301 10.7451 22.2601 10.7451 23.0301V32.7601C10.7451 33.5301 11.3751 34.1601 12.1451 34.1601H17.6751" stroke="#E62334" stroke-width="1.5" stroke-miterlimit="10" stroke-linecap="round" stroke-linejoin="round"/>
</svg>

<svg xmlns:xlink="http://www.w3.org/1999/xlink" width="35" height="35" fill="none"><g stroke="#e62334" stroke-width="1.5" stroke-miterlimit="10" stroke-linecap="round" stroke-linejoin="round"><path d="M17.465.84h3.885a.33.33 0 0 1 .35.35v2.52a.33.33 0 0 1-.35.35h-3.885m2.591.035l3.255 3.535c.595.63.91 1.505.91 2.38v.28c0 .77-.63 1.4-1.4 1.4h-5.145"/><use xlink:href="#B"/><use xlink:href="#B" y="3.325"/><use xlink:href="#B" y="6.65"/><path d="M20.896 21.63h1.96c.77 0 1.4.63 1.4 1.4v9.73c0 .77-.63 1.4-1.4 1.4h-5.18M17.534.84h-3.885a.33.33 0 0 0-.35.35v2.52a.33.33 0 0 0 .35.35h3.885m-2.59.035L11.689 7.63c-.595.63-.91 1.505-.91 2.38v.28c0 .77.63 1.4 1.4 1.4h5.18"/><path d="M17.534 11.69h-5.145c-.91 0-1.645.735-1.645 1.645s.735 1.645 1.645 1.645h5.145m-.07.035h-5.075c-.91 0-1.645.735-1.645 1.645s.735 1.645 1.645 1.645h5.04m.105.035h-5.145c-.91 0-1.645.735-1.645 1.645s.735 1.645 1.645 1.645h5.145"/><path d="M14.104 21.63h-1.96c-.77 0-1.4.63-1.4 1.4v9.73c0 .77.63 1.4 1.4 1.4h5.53"/></g><defs ><path id="B" d="M17.535 11.69h5.04c.91 0 1.645.735 1.645 1.645s-.735 1.645-1.645 1.645h-5.04"/></defs></svg>
